X:1
T:Belleza di Donna Amata-Vaghi Amanti
T:Giovanni  Stefani
T:Source : Affetto amorosi-Canzonette ad une voce sola---Venetia---A.Vincenti---1621. Editor : André Vierendeels (18/11/15).
T:Notes : Original clefs : C1, F4 Alfabetto et intavolatura per chitarra Spagnola m3 in Bas : first "re" notated as "do" in original print Terza impressione (first print 1618) 
T:Vaghi Amanti-Bellezza di donna amata 
C:Giovanni  Stefani
%%score 1 { ( 2 3 ) | 4 }
L:1/8
Q:1/4=80
M:3/4
K:C
V:1 treble nm="Soprano" snm="S"
V:2 treble nm="BC" snm="BC"
V:3 treble 
V:4 bass 
V:1
 d4 c2 | B4 A2 | A4 G2 | G4 G2 | A4 B2 | c4 d2 | B4 B2 | c4 c2 :: g4 f2 | e4 f2 | d4 c2 | %11
w: Va- ghi'A-|man- ti|che bra-|ma- te|di ve-|der va-|ghe bel-|tra- de,|deh spec-|chia- te-|v'in co-|
w: Que ca-|pel- li|ch'el- la|tie- ne|con- tem-|pla- te-|li pur|be- ne,|non fi|sa tan-|to son|
w: Quel- le|fi- la|lu- mi-|no- se|si gen-|ti- li,|si vez-|zo- se,|son le|fi- la|del- le|
w: E la|fron- te|sua ri-|den- te|di due|so- li'un'-|o- ri-|en- te,|che due|so- li'ar-|den- ti'e|
w: Quel- le|sue guan-|cie'a- mo-|ro- se|son due|fre- sch'e|va- ghe|ro- se,|ro- se|col- te'in|pa- ra-|
[M:4/4] B4 B2 cd | e3 B B3 B | A4 A2 Bc | d3 e A3 A | G2 G6 :| %16
w: ste- i, ch'e si|bel- l'a gl'oc- chi|mie- i, ch'e si|bel- l'a dl'oc- chi|mie- i.|
w: bel- li, se sian|o- r'o sian ca-|pel- li, se sian|o- r'o sian ca-|pel- li.|
w: vi- te, di mill'|a- ni- me'in- va-|ghi- te, di mill'|a- ni- me'in va-|ghi- te.|
w: chia- ri, so- no|gl'oc- chi'a- man- ti'e|ca- ri, so- no|gl'oc- chi'a- man- ti'e|ca- ri.|
w: di- soi, e ri-|po- ste'in quel bel|vi- so, e ri-|po- sto'in quel bel|vi- so.|
V:2
 B6 | d6 | A6 | B6 | c4 B2 | G4 A2 | G6 | G6 :: c4 A2 | G4 F2 | G4 F2 |[M:4/4] ^G4 A4 | G2 F2 ^G4 | %13
 E6 B2 | G4 A4 | B8 :| %16
V:3
 D6 | G6 | ^F6 | G6 | A4 D2 | C2 E2 ^F2 | D6 | E6 :: E4 F2 | C4 D2 | D4 C2 |[M:4/4] E4 E4 | %12
 E2 A,2 E4 | ^C6 G2 | D2 E2 ^F4 | D8 :| %16
V:4
 G,,4 A,,2 | B,,4 C,2 | D,4 D,2 | G,,6 | F,4 D,2 | E,4 D,2 | G,4 G,2 | C,4 C,2 :: C,4 C,2 | %9
 E,4 D,2 | G,4 A,2 |[M:4/4] E,2 D,2 C,4- | C,2 D,2 E,4 | A,,6 G,,2 | G,2 E,2 D,4 | G,,8 :| %16

